X:670
T:Mr. John Smith
R:Reel
B:The Athole Collection
M:C|
L:1/8
K:E_
E2GB eBGE|F>EFG ECCF|E2GB eBGE|FDFG E/E/E E2:|
|:G,A,B,C EFGE|FEFG FGAB|c2ec BGEG|F>EFG E/E/E E2:|

